web/packages/design/src/ResourceIcon/assets/captivateiq-dark.svg

<svg width="72" height="72" viewBox="0 0 72 72" fill="none" xmlns="http://www.w3.org/2000/svg">
<path fill-rule="evenodd" clip-rule="evenodd" d="M48.3123 12.3008C61.4459 12.3008 71.9996 22.8545 71.9996 35.9881C71.9996 44.4311 67.7781 51.936 60.9768 55.9229L65.1983 67.4148H55.8172L52.7683 59.2063C51.3612 59.4408 49.7195 59.6754 48.3123 59.6754C35.1788 59.6754 24.625 49.1216 24.625 35.9881C24.625 22.8545 35.1788 12.3008 48.3123 12.3008ZM48.3123 20.7438C40.8074 20.7438 34.7097 27.5451 34.7097 35.9881C34.7097 44.4311 40.8074 51.2324 48.3123 51.2324C55.8172 51.2324 61.9149 44.4311 61.9149 35.9881C61.9149 27.5451 55.8172 20.7438 48.3123 20.7438Z" fill="white"/>
<path d="M6.33224 20.5088H0V13.0039H21.5765V20.5088H15.4788V51.4664H21.5765V59.2059H0V51.4664H6.33224V20.5088Z" fill="white"/>
</svg>

<svg xmlns="http://www.w3.org/2000/svg" width="72" height="72" fill="none" viewBox="0 0 72 72"><path fill="#fff" fill-rule="evenodd" d="M48.312 12.3A23.62 23.62 0 0 1 72 35.989c0 8.443-4.222 15.948-11.023 19.935l4.221 11.492h-9.38l-3.05-8.209c-1.407.235-3.049.47-4.456.47a23.62 23.62 0 0 1-23.687-23.688 23.62 23.62 0 0 1 23.687-23.687m0 8.444c-7.505 0-13.602 6.801-13.602 15.244s6.097 15.244 13.602 15.244 13.603-6.8 13.603-15.244-6.098-15.244-13.603-15.244" clip-rule="evenodd"/><path fill="#fff" d="M6.332 20.509H0v-7.505h21.577v7.505h-6.098v30.957h6.098v7.74H0v-7.74h6.332z"/></svg>
